src/images/stack-javascript.svg

<svg xmlns="http://www.w3.org/2000/svg" width="179" height="179" fill="none" viewBox="0 0 179 179"><rect width="179" height="179" fill="#fff"/><path fill="#F7C455" fill-rule="evenodd" d="M30.5601 32.4399H146.35V149.38H30.5601V32.4399Z" clip-rule="evenodd"/><path fill="#454545" fill-rule="evenodd" d="M81.85 84.8799L93.77 85.4698V126.28C93.77 126.28 92.13 140.49 78.28 139.83C74.6184 139.685 71.0347 138.728 67.7884 137.028C64.5421 135.328 61.7145 132.927 59.51 130L68.6 123.6C68.6 123.6 74.22 129.67 77.38 129.41C80.54 129.15 81.26 122.86 81.26 122.86L81.85 84.8799Z" clip-rule="evenodd"/><path fill="#454545" fill-rule="evenodd" d="M125.17 98.0001L134.33 92.0001C134.33 92.0001 126.82 82.79 118.89 83.16C110.96 83.53 103.46 86.16 101.96 93.22C100.89 98.22 100.25 102.97 105.96 110.05C111.67 117.13 120.67 116.61 124.06 121.34C127.45 126.07 123.83 128.4 119.51 128.96C115.19 129.52 107.34 122.37 107.34 122.37L99.7 128.66C99.7 128.66 107 137.53 115.49 138.94C123.98 140.35 139.63 135.8 137.98 120.17C137.19 112.69 125.77 108.71 125.77 108.71C125.77 108.71 115.86 104.92 113.77 101.42C111.68 97.92 114.77 94.9001 117.23 94.3101C119.69 93.7201 125.17 98.0001 125.17 98.0001Z" clip-rule="evenodd"/></svg>

<svg fill="none" viewBox="0 0 179 179"><path fill="#fff" d="M0 0h179v179H0z"/><path fill="#F7C455" fill-rule="evenodd" d="M30.56 32.44h115.79v116.94H30.56V32.44z" clip-rule="evenodd"/><path fill="#454545" fill-rule="evenodd" d="M81.85 84.88l11.92.59v40.81s-1.64 14.21-15.49 13.55A24.724 24.724 0 0159.51 130l9.09-6.4s5.62 6.07 8.78 5.81c3.16-.26 3.88-6.55 3.88-6.55l.59-37.98zM125.17 98l9.16-6s-7.51-9.21-15.44-8.84c-7.93.37-15.43 3-16.93 10.06-1.07 5-1.71 9.75 4 16.83 5.71 7.08 14.71 6.56 18.1 11.29 3.39 4.73-.23 7.06-4.55 7.62-4.32.56-12.17-6.59-12.17-6.59l-7.64 6.29s7.3 8.87 15.79 10.28c8.49 1.41 24.14-3.14 22.49-18.77-.79-7.48-12.21-11.46-12.21-11.46s-9.91-3.79-12-7.29 1-6.52 3.46-7.11c2.46-.59 7.94 3.69 7.94 3.69z" clip-rule="evenodd"/></svg>
